assets/imgs/arroba.svg

<svg width="18" height="18" viewBox="0 0 18 18" fill="none" xmlns="http://www.w3.org/2000/svg">
<path d="M9.00091 0C4.03835 0 0.000999451 4.03735 0.000999451 8.99991C0.000999451 13.9627 4.03835 18.0001 9.00091 18.0001C9.37226 18.0001 9.67317 17.6991 9.67317 17.3278C9.67317 16.9566 9.37226 16.6556 9.00091 16.6556C4.77972 16.6556 1.34553 13.2213 1.34553 8.99991C1.34553 4.77872 4.77972 1.34453 9.00091 1.34453C13.2221 1.34453 16.6563 4.77872 16.6563 8.99991V11.0821C16.6563 11.8595 16.0238 12.4918 15.2464 12.4918C14.4691 12.4918 13.8367 11.8595 13.8367 11.0821V8.99991C13.8367 6.33326 11.6674 4.16382 9.00082 4.16382C6.33417 4.16382 4.16473 6.33326 4.16473 8.99991C4.16473 11.6667 6.33417 13.8364 9.00082 13.8364C10.4808 13.8364 11.8068 13.1674 12.6946 12.1167C13.1044 13.124 14.0935 13.8364 15.2464 13.8364C16.7651 13.8364 18.0008 12.6008 18.0008 11.0821V8.99991C18.0008 4.03735 13.9635 0 9.00091 0ZM9.00091 12.4918C7.07563 12.4918 5.50935 10.9254 5.50935 8.99991C5.50935 7.07464 7.07572 5.50835 9.00091 5.50835C10.9261 5.50835 12.4923 7.07464 12.4923 8.99991C12.4923 10.9254 10.9261 12.4918 9.00091 12.4918Z" fill="#222222"/>
</svg>

<svg width="18" height="18" fill="none" xmlns="http://www.w3.org/2000/svg"><path d="M9 0C4.039 0 .002 4.037.002 9s4.037 9 9 9a.672.672 0 100-1.344C4.78 16.656 1.346 13.22 1.346 9S4.78 1.345 9 1.345 16.656 4.779 16.656 9v2.082c0 .777-.632 1.41-1.41 1.41-.777 0-1.41-.633-1.41-1.41V9a4.841 4.841 0 00-4.835-4.836A4.842 4.842 0 004.165 9 4.842 4.842 0 009 13.836c1.48 0 2.806-.669 3.694-1.72a2.758 2.758 0 002.551 1.72 2.758 2.758 0 002.755-2.754V9c0-4.963-4.038-9-9-9zm0 12.492A3.496 3.496 0 015.51 9 3.496 3.496 0 019 5.508 3.495 3.495 0 0112.493 9a3.496 3.496 0 01-3.491 3.492z" fill="#222"/></svg>
